usr/share/icons/biglinux-icons-material/scalable/places/red-folder-open.svg

<?xml version="1.0" encoding="UTF-8" standalone="no"?>
<svg
   width="24"
   height="24"
   viewBox="0 0 24 24"
   fill="none"
   version="1.1"
   id="svg17"
   sodipodi:docname="red-folder-open.svg"
   inkscape:version="1.3 (0e150ed6c4, 2023-07-21)"
   xml:space="preserve"
   xmlns:inkscape="http://www.inkscape.org/namespaces/inkscape"
   xmlns:sodipodi="http://sodipodi.sourceforge.net/DTD/sodipodi-0.dtd"
   xmlns:xlink="http://www.w3.org/1999/xlink"
   xmlns="http://www.w3.org/2000/svg"
   xmlns:svg="http://www.w3.org/2000/svg"><sodipodi:namedview
     id="namedview17"
     pagecolor="#ffffff"
     bordercolor="#000000"
     borderopacity="0.25"
     inkscape:showpageshadow="2"
     inkscape:pageopacity="0.0"
     inkscape:pagecheckerboard="0"
     inkscape:deskcolor="#d1d1d1"
     inkscape:zoom="11.313709"
     inkscape:cx="-36.195028"
     inkscape:cy="14.805048"
     inkscape:window-width="2560"
     inkscape:window-height="998"
     inkscape:window-x="0"
     inkscape:window-y="0"
     inkscape:window-maximized="1"
     inkscape:current-layer="svg17" /><rect
     opacity="0.8125"
     x="1"
     y="1"
     width="22"
     height="22"
     rx="6.6"
     fill="url(#paint0_linear_201_71)"
     id="rect1" /><rect
     opacity="0.125"
     x="3"
     y="2.25"
     width="18"
     height="18"
     rx="4.4"
     fill="url(#paint1_linear_201_71)"
     fill-opacity="0.875"
     id="rect2" /><rect
     x="3.25"
     y="3.25"
     width="17.5"
     height="17.5"
     rx="4.15"
     fill="#CCCCCC"
     stroke="url(#paint2_linear_201_71)"
     stroke-width="0.5"
     id="rect3" /><path
     opacity="0.125"
     d="M1 7.50781C1 5.84664 2.34664 4.5 4.00781 4.5H8.19048C9.265 4.5 10.3068 4.86994 11.1406 5.54762V5.54762C11.9745 6.2253 13.0162 6.59524 14.0908 6.59524H19.9922C21.6534 6.59524 23 7.94188 23 9.60305V15.5C23 19.1451 20.0451 22.1 16.4 22.1H7.6C3.95492 22.1 1 19.1451 1 15.5V7.50781Z"
     fill="url(#paint3_linear_201_71)"
     fill-opacity="0.875"
     id="path3" /><defs
     id="defs17"><linearGradient
       id="paint0_linear_201_71"
       x1="23"
       y1="0.999999"
       x2="1"
       y2="12"
       gradientUnits="userSpaceOnUse"><stop
         stop-color="#E32A2A"
         id="stop5" /><stop
         offset="1"
         stop-color="#680000"
         id="stop6" /></linearGradient><linearGradient
       id="paint1_linear_201_71"
       x1="21"
       y1="4"
       x2="3"
       y2="4"
       gradientUnits="userSpaceOnUse"><stop
         stop-opacity="0.5"
         id="stop7" /><stop
         offset="0.890123"
         id="stop8" /><stop
         offset="1"
         stop-opacity="0"
         id="stop9" /></linearGradient><linearGradient
       id="paint2_linear_201_71"
       x1="12"
       y1="3"
       x2="11.5"
       y2="8"
       gradientUnits="userSpaceOnUse"><stop
         stop-color="#DDDDDD"
         id="stop10" /><stop
         offset="1"
         stop-color="#CCCCCC"
         stop-opacity="0"
         id="stop11" /></linearGradient><linearGradient
       id="paint3_linear_201_71"
       x1="23"
       y1="9"
       x2="1.01236"
       y2="9.52141"
       gradientUnits="userSpaceOnUse"><stop
         stop-opacity="0.5"
         id="stop12" /><stop
         offset="1"
         id="stop13" /></linearGradient><linearGradient
       id="paint4_linear_201_71"
       x1="23"
       y1="5.4"
       x2="1.42949"
       y2="23.5115"
       gradientUnits="userSpaceOnUse"><stop
         stop-color="#FF3838"
         id="stop14" /><stop
         offset="1"
         stop-color="#B71414"
         id="stop15" /></linearGradient><linearGradient
       id="paint5_linear_201_71"
       x1="15"
       y1="5.5"
       x2="5.5"
       y2="19.5"
       gradientUnits="userSpaceOnUse"><stop
         stop-color="#FF8383"
         id="stop16" /><stop
         offset="1"
         stop-color="#680000"
         id="stop17" /></linearGradient><linearGradient
       id="a"
       x1="-240.47"
       x2="-240.47"
       y1="-60.605"
       y2="-29.025999"
       gradientTransform="matrix(0.96667,0,0,0.95,262.45,67.575)"
       gradientUnits="userSpaceOnUse"><stop
         stop-color="#4285db"
         offset="0"
         id="stop13351" /><stop
         stop-color="#42b9db"
         offset="1"
         id="stop13353" /></linearGradient><linearGradient
       id="b"
       x1="10.583"
       x2="225.69"
       y1="-184.67999"
       y2="-184.67999"
       gradientTransform="matrix(0.11417,0,0,0.11417,18.557,59.5)"
       gradientUnits="userSpaceOnUse"><stop
         stop-color="#fafbfb"
         offset="0"
         id="stop13356" /><stop
         stop-color="#fafbfb"
         stop-opacity="0"
         offset="1"
         id="stop13358" /></linearGradient><linearGradient
       id="c"
       x1="520"
       x2="410"
       y1="-620"
       y2="-620"
       gradientTransform="matrix(0.0302,0,0,0.0302,18.557,59.5)"
       gradientUnits="userSpaceOnUse"><stop
         offset="0"
         id="stop13361" /><stop
         stop-opacity="0"
         offset="1"
         id="stop13363" /></linearGradient><radialGradient
       id="paint0_radial_2_164-4"
       cx="0"
       cy="0"
       r="1"
       gradientUnits="userSpaceOnUse"
       gradientTransform="matrix(0,22,-22,0,32,1.00004)"><stop
         stop-color="#C5FFFE"
         id="stop8570-4" /><stop
         offset="1"
         stop-color="#00FFFF"
         id="stop8572-3" /></radialGradient><radialGradient
       id="paint1_radial_2_164-8"
       cx="0"
       cy="0"
       r="1"
       gradientUnits="userSpaceOnUse"
       gradientTransform="matrix(3.8397244e-5,22,-22,3.8397244e-5,-8,1)"><stop
         stop-color="#58C6E3"
         id="stop8575-6" /><stop
         offset="1"
         stop-color="#034DB0"
         id="stop8577-8" /></radialGradient><linearGradient
       id="paint6_linear_211_10"
       x1="18"
       y1="9"
       x2="6"
       y2="21"
       gradientUnits="userSpaceOnUse"
       gradientTransform="matrix(0.87495626,0,0,0.94072478,1.48864,0.503841)"><stop
         stop-color="#999999"
         id="stop19" /><stop
         offset="1"
         stop-color="#333333"
         id="stop20" /></linearGradient><linearGradient
       id="paint6_linear_207_79"
       x1="17.133301"
       y1="8.3333302"
       x2="6.8666701"
       y2="20.0667"
       gradientUnits="userSpaceOnUse"
       gradientTransform="matrix(0.93749707,0,0,0.93749707,0.75005121,0.90556777)"><stop
         stop-color="#FF7C7D"
         id="stop19-9" /><stop
         offset="1"
         stop-color="#751010"
         id="stop20-3" /></linearGradient><linearGradient
       id="paint0_linear_211_2"
       x1="23"
       y1="0.999999"
       x2="1"
       y2="12"
       gradientUnits="userSpaceOnUse"><stop
         stop-color="#E3C880"
         id="stop4" /><stop
         offset="1"
         stop-color="#6F5C38"
         id="stop5-4" /></linearGradient><linearGradient
       id="paint1_linear_211_2"
       x1="23"
       y1="9.34659"
       x2="1.01325"
       y2="9.88638"
       gradientUnits="userSpaceOnUse"><stop
         stop-opacity="0.5"
         id="stop6-9" /><stop
         offset="1"
         id="stop7-2" /></linearGradient><linearGradient
       id="paint2_linear_211_2"
       x1="23"
       y1="7"
       x2="3.15288"
       y2="25.3309"
       gradientUnits="userSpaceOnUse"><stop
         stop-color="#FFE795"
         id="stop8-0" /><stop
         offset="1"
         stop-color="#7A653E"
         id="stop9-6" /></linearGradient><linearGradient
       inkscape:collect="always"
       xlink:href="#paint4_linear_201_71"
       id="linearGradient34"
       gradientUnits="userSpaceOnUse"
       x1="23"
       y1="5.4"
       x2="1.42949"
       y2="23.5115" /><linearGradient
       inkscape:collect="always"
       xlink:href="#paint5_linear_201_71"
       id="linearGradient35"
       gradientUnits="userSpaceOnUse"
       x1="15"
       y1="5.5"
       x2="5.5"
       y2="19.5" /></defs><g
     opacity="0.875"
     id="g33"
     transform="matrix(1,0,0.01757723,0.92215799,-0.51476143,1.7903662)"
     style="opacity:0.875"><path
       d="M 1,8.40781 C 1,6.74664 2.34664,5.4 4.00781,5.4 h 4.18267 c 1.07452,0 2.11632,0.36994 2.95012,1.04762 v 0 c 0.8339,0.67768 1.8756,1.04762 2.9502,1.04762 h 5.9014 C 21.6534,7.49524 23,8.84188 23,10.5031 V 16.4 C 23,20.0451 20.0451,23 16.4,23 H 7.6 C 3.95492,23 1,20.0451 1,16.4 Z"
       fill="url(#paint4_linear_201_71)"
       id="path32"
       style="fill:url(#linearGradient34)" /><path
       d="M 22.625,10.5031 V 16.4 c 0,3.438 -2.787,6.225 -6.225,6.225 H 7.6 C 4.16203,22.625 1.375,19.838 1.375,16.4 V 8.40781 C 1.375,6.95375 2.55375,5.775 4.00781,5.775 h 4.18267 c 0.98838,0 1.94662,0.34028 2.71362,0.96363 0.9007,0.73201 2.026,1.13161 3.1867,1.13161 h 5.9014 c 1.454,0 2.6328,1.17875 2.6328,2.63286 z"
       stroke="url(#paint5_linear_201_71)"
       stroke-opacity="0.375"
       stroke-width="0.75"
       stroke-linejoin="round"
       id="path33"
       style="stroke:url(#linearGradient35)" /></g></svg>

<svg xmlns="http://www.w3.org/2000/svg" xmlns:xlink="http://www.w3.org/1999/xlink" xml:space="preserve" width="24" height="24" fill="none"><rect width="22" height="22" x="1" y="1" fill="url(#a)" opacity=".813" rx="6.6"/><rect width="18" height="18" x="3" y="2.25" fill="url(#b)" fill-opacity=".875" opacity=".125" rx="4.4"/><rect width="17.5" height="17.5" x="3.25" y="3.25" fill="#CCC" stroke="url(#c)" stroke-width=".5" rx="4.15"/><path fill="url(#d)" fill-opacity=".875" d="M1 7.508A3.008 3.008 0 0 1 4.008 4.5H8.19c1.075 0 2.117.37 2.95 1.048a4.678 4.678 0 0 0 2.95 1.047h5.902A3.008 3.008 0 0 1 23 9.603V15.5a6.6 6.6 0 0 1-6.6 6.6H7.6A6.6 6.6 0 0 1 1 15.5V7.508Z" opacity=".125"/><defs><linearGradient id="a" x1="23" x2="1" y1="1" y2="12" gradientUnits="userSpaceOnUse"><stop stop-color="#E32A2A"/><stop offset="1" stop-color="#680000"/></linearGradient><linearGradient id="b" x1="21" x2="3" y1="4" y2="4" gradientUnits="userSpaceOnUse"><stop stop-opacity=".5"/><stop offset=".89"/><stop offset="1" stop-opacity="0"/></linearGradient><linearGradient id="c" x1="12" x2="11.5" y1="3" y2="8" gradientUnits="userSpaceOnUse"><stop stop-color="#DDD"/><stop offset="1" stop-color="#CCC" stop-opacity="0"/></linearGradient><linearGradient id="d" x1="23" x2="1.012" y1="9" y2="9.521" gradientUnits="userSpaceOnUse"><stop stop-opacity=".5"/><stop offset="1"/></linearGradient><linearGradient id="e" x1="23" x2="1.429" y1="5.4" y2="23.512" gradientUnits="userSpaceOnUse"><stop stop-color="#FF3838"/><stop offset="1" stop-color="#B71414"/></linearGradient><linearGradient id="f" x1="15" x2="5.5" y1="5.5" y2="19.5" gradientUnits="userSpaceOnUse"><stop stop-color="#FF8383"/><stop offset="1" stop-color="#680000"/></linearGradient><linearGradient xlink:href="#e" id="g" x1="23" x2="1.429" y1="5.4" y2="23.512" gradientUnits="userSpaceOnUse"/><linearGradient xlink:href="#f" id="h" x1="15" x2="5.5" y1="5.5" y2="19.5" gradientUnits="userSpaceOnUse"/></defs><g opacity=".875" style="opacity:.875"><path fill="url(#e)" d="M1 8.408A3.008 3.008 0 0 1 4.008 5.4H8.19c1.075 0 2.117.37 2.95 1.048a4.678 4.678 0 0 0 2.95 1.047h5.902A3.008 3.008 0 0 1 23 10.503V16.4a6.6 6.6 0 0 1-6.6 6.6H7.6A6.6 6.6 0 0 1 1 16.4Z" style="fill:url(#g)" transform="matrix(1 0 .01758 .92216 -.515 1.79)"/><path stroke="url(#f)" stroke-linejoin="round" stroke-opacity=".375" stroke-width=".75" d="M22.625 10.503V16.4a6.225 6.225 0 0 1-6.225 6.225H7.6A6.225 6.225 0 0 1 1.375 16.4V8.408a2.633 2.633 0 0 1 2.633-2.633H8.19c.989 0 1.947.34 2.714.964a5.053 5.053 0 0 0 3.187 1.131h5.901a2.633 2.633 0 0 1 2.633 2.633z" style="stroke:url(#h)" transform="matrix(1 0 .01758 .92216 -.515 1.79)"/></g></svg>
